X:1
T:Millspaugh, CMD
T:Millspaugh, CMD
T:Michael Lonneke, 2005
T:© 2005 Michael Lonneke Courtesy of the Cyber Hymnal™
C:Michael Lonneke, 2005
Z:© 2005 Michael Lonneke
Z:Courtesy of the Cyber Hymnal™
%%score ( 1 2 ) ( 3 4 )
L:1/8
Q:1/4=110
M:none
K:Ab
V:1 treble 
V:2 treble 
V:3 bass 
V:4 bass 
V:1
 C2 | [A,F]2 [CA]2 [DG]2 [GB]2 | [CA]3 [=EG] [CF]2 A2 | [EG]2 [A,C]2 [CE]2 =D2 | [G,C]6 [B,C]2 | %5
 [CF]2 [FA]2 [DG]2 [GB]2 | [CA]3 [=EG] [CF]2 [Cc]2 | [DB]2 [CA]2 [DG]2 G2 | [CF]6 (AB) | %9
 [Cc]2 [=Ec]2 [Fc]2 (BA) | [GB]2 [FB]2 [=EB]2 (AG) | [CF]2 [Fc]2 [Gc]2 ([GB][FA]) | %12
 ([FA]2 [=EG]2) z2 C2 | [A,F]2 [CA]2 [DG]2 [GB]2 | [CA]3 [=EG] [CF]2 [Cc]2 | %15
 [DB]2 [CA]2 [CA]3 [B,G] | [CF]6 |] %17
V:2
 C2 | x8 | x6 (C=D) | x6 (C=B,) | x8 | x8 | x8 | x6 (CB,) | x6 F2 | x6 F2 | x6 =E2 | x8 | %12
 x6 (CB,) | x8 | x8 | x8 | x6 |] %17
V:3
 C,2 | [C,F,]2 [A,,F,]2 [B,,F,]2 [C,=E,]2 | [F,,F,]2 [C,G,]2 [F,,A,]2 [F,A,]2 | %3
 [E,,B,]2 [F,,F,]2 [G,,G,]2 [G,,G,]2 | [C,E,]6 [C,G,]2 | A,2 A,2 [B,,F,]2 [C,=E,]2 | %6
 [F,,F,]3 [G,,=E,] (A,G,) [A,,F,]2 | [G,,G,]2 F,2 [C,F,]2 [C,=E,]2 | [F,,A,]6 [C,C]2 | %9
 [F,A,]2 [F,G,]2 [F,A,]2 F,2 | [C,=E,]2 [=D,F,]2 [E,G,]2 [C,B,]2 | %11
 [A,,A,]2 [A,,A,]2 [B,,D]2 [G,,B,]2 | [C,C]2 [B,,C]2 A,,2 [G,,C]2 | A,2 A,2 [B,,F,]2 [C,=E,]2 | %14
 [F,,F,]3 [G,,=E,] (A,G,) [A,,F,]2 | [G,,G,]2 F,2 [C,F,]2 [C,=E,]2 | [F,,A,]6 |] %17
V:4
 C,2 | x8 | x8 | x8 | x8 | (F,=E,) (D,C,) x4 | x4 A,,2 x2 | x2 (A,,B,,) x4 | x8 | x6 (A,,B,,) | %10
 x8 | x8 | x8 | (F,=E,) (D,C,) x4 | x4 A,,2 x2 | x2 (A,,B,,) x4 | x6 |] %17

